Costumes/beachball.svg

<?xml version="1.0" encoding="UTF-8" standalone="no"?>
<svg
   version="1.1"
   width="68.06694"
   height="65.545944"
   id="svg12"
   sodipodi:docname="beachball.svg"
   xmlns:inkscape="http://www.inkscape.org/namespaces/inkscape"
   xmlns:sodipodi="http://sodipodi.sourceforge.net/DTD/sodipodi-0.dtd"
   xmlns="http://www.w3.org/2000/svg"
   xmlns:svg="http://www.w3.org/2000/svg">
  <defs
     id="defs16" />
  <sodipodi:namedview
     id="namedview14"
     pagecolor="#ffffff"
     bordercolor="#000000"
     borderopacity="0.25"
     inkscape:showpageshadow="2"
     inkscape:pageopacity="0.0"
     inkscape:pagecheckerboard="0"
     inkscape:deskcolor="#d1d1d1" />
  <!-- Exported by Scratch - http://scratch.mit.edu/ -->
  <g
     id="ID0.18169475393369794"
     transform="translate(-0.28523825,-0.09573714)">
    <path
       id="ID0.6904299128800631"
       fill="#272525"
       d="m 75,23 c 14.898,0 28.398,5.827 38.174,15.24 C 122.949,47.654 129,60.654 129,75 c 0,14.346 -6.051,27.346 -15.826,36.76 C 103.398,121.173 89.898,127 75,127 60.102,127 46.602,121.173 36.826,111.76 27.051,102.346 21,89.346 21,75 21,60.654 27.051,47.654 36.826,38.24 46.602,28.827 60.102,23 75,23 Z"
       transform="matrix(0.63024944,0,0,0.63024944,-12.95,-14.4)" />
    <path
       id="ID0.5407828064635396"
       fill="#ffffff"
       d="m 24.924,75.24 c 0,-26.101 22.837,-47.26 51.01,-47.26 28.172,0 49.08,20.938 49.08,47.04 0,26.101 -20.908,47.479 -49.08,47.479 -28.172,0 -51.01,-21.158 -51.01,-47.259 v 0 z"
       transform="matrix(0.63024944,0,0,0.63024944,-12.95,-14.4)" />
    <path
       id="ID0.9486554213799536"
       fill="#ff0000"
       d="m 53.497,70.676 c 4.631,0 8.827,1.909 11.865,4.992 3.038,3.083 4.919,7.342 4.919,12.041 0,4.699 -1.881,8.958 -4.919,12.041 -3.038,3.083 -7.234,4.992 -11.865,4.992 -4.631,0 -8.827,-1.909 -11.865,-4.992 -3.038,-3.083 -4.919,-7.342 -4.919,-12.041 0,-4.699 1.881,-8.958 4.919,-12.041 3.038,-3.083 7.234,-4.992 11.865,-4.992 z"
       transform="matrix(0.63024944,0,0,0.63024944,-12.95,-14.4)" />
    <path
       id="ID0.209154793061316"
       fill="#ff0000"
       d="m 77.113,37.042 c 3.476,0 6.626,1.36 8.907,3.556 2.281,2.196 3.693,5.23 3.693,8.577 0,3.347 -1.412,6.381 -3.693,8.577 -2.281,2.196 -5.431,3.556 -8.907,3.556 -3.476,0 -6.626,-1.36 -8.907,-3.556 -2.281,-2.196 -3.693,-5.23 -3.693,-8.577 0,-3.347 1.412,-6.381 3.693,-8.577 2.281,-2.196 5.431,-3.556 8.907,-3.556 z"
       transform="matrix(0.63024944,0,0,0.63024944,-12.95,-14.4)" />
    <path
       id="ID0.47492631059139967"
       fill="#ffac00"
       d="m 47.995,39.576 c 2.726,0 5.196,1.149 6.985,3.006 1.789,1.856 2.896,4.42 2.896,7.25 0,2.83 -1.107,5.394 -2.896,7.25 -1.789,1.857 -4.259,3.006 -6.985,3.006 -2.726,0 -5.196,-1.149 -6.985,-3.006 -1.789,-1.856 -2.896,-4.42 -2.896,-7.25 0,-2.83 1.107,-5.394 2.896,-7.25 1.789,-1.857 4.259,-3.006 6.985,-3.006 z"
       transform="matrix(0.63024944,0,0,0.63024944,-12.95,-14.4)" />
    <path
       id="ID0.6609331765212119"
       fill="#ffac00"
       d="m 94.863,32.997 c 1.614,0 3.077,0.631 4.136,1.651 1.059,1.02 1.715,2.429 1.715,3.983 0,1.554 -0.656,2.963 -1.715,3.983 -1.059,1.02 -2.522,1.651 -4.136,1.651 -1.614,0 -3.077,-0.631 -4.136,-1.651 -1.059,-1.02 -1.715,-2.429 -1.715,-3.983 0,-1.554 0.656,-2.963 1.715,-3.983 1.059,-1.02 2.522,-1.651 4.136,-1.651 z"
       transform="matrix(0.63024944,0,0,0.63024944,-12.95,-14.4)" />
    <path
       id="ID0.3788029346615076"
       fill="#ffac00"
       d="m 100.514,54.68 c 3.007,0 5.732,1.11 7.705,2.902 1.974,1.793 3.195,4.269 3.195,7.001 0,2.732 -1.221,5.208 -3.195,7.001 -1.973,1.792 -4.698,2.902 -7.705,2.902 -3.007,0 -5.732,-1.11 -7.705,-2.902 -1.974,-1.793 -3.195,-4.269 -3.195,-7.001 0,-2.732 1.221,-5.208 3.195,-7.001 1.973,-1.792 4.698,-2.902 7.705,-2.902 z"
       transform="matrix(0.63024944,0,0,0.63024944,-12.95,-14.4)" />
    <path
       id="ID0.2442327979952097"
       fill="#ff0000"
       d="m 113.514,74.887 c 2.4,0 4.575,0.939 6.149,2.455 1.575,1.517 2.55,3.611 2.55,5.922 0,2.311 -0.975,4.405 -2.55,5.922 -1.574,1.516 -3.749,2.455 -6.149,2.455 -2.4,0 -4.575,-0.939 -6.149,-2.455 -1.575,-1.517 -2.55,-3.611 -2.55,-5.922 0,-2.311 0.975,-4.405 2.55,-5.922 1.574,-1.516 3.749,-2.455 6.149,-2.455 z"
       transform="matrix(0.63024944,0,0,0.63024944,-12.95,-14.4)" />
    <path
       id="ID0.9025586959905922"
       fill="#ffac00"
       d="m 92.759,91.411 c -9.258,0.095 -16.694,6.995 -16.608,15.409 0.052,4.91 2.654,9.244 6.651,11.986 0.16,0.11 0.322,0.217 0.486,0.322 1.129,1.276 2.935,1.374 4.196,2.061 0.142,0.016 0.272,0.041 0.396,0.08 0.167,-0.054 0.35,-0.088 0.547,-0.097 0.241,-0.138 0.531,-0.221 0.863,-0.239 1.096,-0.382 2.145,-0.785 3.275,-0.996 0.19,-0.143 0.406,-0.246 0.652,-0.283 0.027,-0.004 0.055,-0.01 0.081,-0.016 0.284,-0.223 0.653,-0.361 1.104,-0.38 0.305,-0.215 0.673,-0.348 1.068,-0.401 0.084,-0.062 0.168,-0.123 0.269,-0.168 0.332,-0.147 0.666,-0.289 1.001,-0.43 0.217,-0.092 0.234,-0.1 0.052,-0.021 0.118,-0.051 0.235,-0.102 0.354,-0.152 0.468,-0.212 0.918,-0.441 1.344,-0.729 0.249,-0.168 0.529,-0.252 0.814,-0.272 0.135,-0.106 0.271,-0.209 0.442,-0.274 0.134,-0.069 0.284,-0.119 0.442,-0.156 0.229,-0.241 0.523,-0.424 0.895,-0.51 0.191,-0.147 0.404,-0.272 0.67,-0.334 0.146,-0.108 0.297,-0.211 0.482,-0.274 0.189,-0.187 0.422,-0.338 0.705,-0.429 0.093,-0.067 0.195,-0.127 0.304,-0.178 0.125,-0.139 0.274,-0.257 0.444,-0.353 0.215,-0.261 0.519,-0.444 0.882,-0.552 0.159,-0.158 0.352,-0.289 0.577,-0.379 0.037,-0.021 0.066,-0.047 0.105,-0.062 0.161,-0.152 0.33,-0.279 0.502,-0.398 0.143,-0.179 0.32,-0.328 0.531,-0.443 0.018,-0.018 0.029,-0.036 0.049,-0.053 0.168,-0.213 0.379,-0.393 0.643,-0.513 0.205,-0.245 0.455,-0.456 0.795,-0.565 0.147,-0.211 0.34,-0.389 0.574,-0.522 0.096,-0.104 0.202,-0.198 0.325,-0.278 0.136,-0.252 0.31,-0.482 0.554,-0.649 0.082,-0.379 0.16,-0.804 0.262,-1.29 0.027,-0.156 0.051,-0.312 0.07,-0.471 0.086,-0.629 0.127,-1.27 0.121,-1.922 -0.082,-8.418 -7.658,-15.166 -16.919,-15.069 v 0 z"
       transform="matrix(0.63024944,0,0,0.63024944,-12.95,-14.4)" />
  </g>
</svg>

<svg version="1.1" width="69" height="66" xmlns="http://www.w3.org/2000/svg" xmlns:xlink="http://www.w3.org/1999/xlink">
  <!-- Exported by Scratch - http://scratch.mit.edu/ -->
  <g id="ID0.18169475393369794">
    <path id="ID0.6904299128800631" fill="#272525" d="M 75 23 C 89.898 23 103.398 28.827 113.174 38.240 C 122.949 47.654 129 60.654 129 75 C 129 89.346 122.949 102.346 113.174 111.760 C 103.398 121.173 89.898 127 75 127 C 60.102 127 46.602 121.173 36.826 111.760 C 27.051 102.346 21 89.346 21 75 C 21 60.654 27.051 47.654 36.826 38.240 C 46.602 28.827 60.102 23 75 23 L 75 23 L 75 23 Z " transform="matrix(0.6302494406700134, 0, 0, 0.6302494406700134, -12.95, -14.4)"/>
    <path id="ID0.5407828064635396" fill="#FFFFFF" d="M 24.924 75.240 C 24.924 49.139 47.761 27.980 75.934 27.980 C 104.106 27.980 125.014 48.918 125.014 75.020 C 125.014 101.121 104.106 122.499 75.934 122.499 C 47.762 122.499 24.924 101.341 24.924 75.240 L 24.924 75.240 L 24.924 75.240 L 24.924 75.240 Z " transform="matrix(0.6302494406700134, 0, 0, 0.6302494406700134, -12.95, -14.4)"/>
    <path id="ID0.9486554213799536" fill="#FF0000" d="M 53.497 70.676 C 58.128 70.676 62.324 72.585 65.362 75.668 C 68.400 78.751 70.281 83.010 70.281 87.709 C 70.281 92.408 68.400 96.667 65.362 99.750 C 62.324 102.833 58.128 104.742 53.497 104.742 C 48.866 104.742 44.670 102.833 41.632 99.750 C 38.594 96.667 36.713 92.408 36.713 87.709 C 36.713 83.010 38.594 78.751 41.632 75.668 C 44.670 72.585 48.866 70.676 53.497 70.676 L 53.497 70.676 L 53.497 70.676 Z " transform="matrix(0.6302494406700134, 0, 0, 0.6302494406700134, -12.95, -14.4)"/>
    <path id="ID0.209154793061316" fill="#FF0000" d="M 77.113 37.042 C 80.589 37.042 83.739 38.402 86.020 40.598 C 88.301 42.794 89.713 45.828 89.713 49.175 C 89.713 52.522 88.301 55.556 86.020 57.752 C 83.739 59.948 80.589 61.308 77.113 61.308 C 73.637 61.308 70.487 59.948 68.206 57.752 C 65.925 55.556 64.513 52.522 64.513 49.175 C 64.513 45.828 65.925 42.794 68.206 40.598 C 70.487 38.402 73.637 37.042 77.113 37.042 L 77.113 37.042 L 77.113 37.042 Z " transform="matrix(0.6302494406700134, 0, 0, 0.6302494406700134, -12.95, -14.4)"/>
    <path id="ID0.47492631059139967" fill="#FFAC00" d="M 47.995 39.576 C 50.721 39.576 53.191 40.725 54.980 42.582 C 56.769 44.438 57.876 47.002 57.876 49.832 C 57.876 52.662 56.769 55.226 54.980 57.082 C 53.191 58.939 50.721 60.088 47.995 60.088 C 45.269 60.088 42.799 58.939 41.010 57.082 C 39.221 55.226 38.114 52.662 38.114 49.832 C 38.114 47.002 39.221 44.438 41.010 42.582 C 42.799 40.725 45.269 39.576 47.995 39.576 L 47.995 39.576 L 47.995 39.576 Z " transform="matrix(0.6302494406700134, 0, 0, 0.6302494406700134, -12.95, -14.4)"/>
    <path id="ID0.6609331765212119" fill="#FFAC00" d="M 94.863 32.997 C 96.477 32.997 97.940 33.628 98.999 34.648 C 100.058 35.668 100.714 37.077 100.714 38.631 C 100.714 40.185 100.058 41.594 98.999 42.614 C 97.940 43.634 96.477 44.265 94.863 44.265 C 93.249 44.265 91.786 43.634 90.727 42.614 C 89.668 41.594 89.012 40.185 89.012 38.631 C 89.012 37.077 89.668 35.668 90.727 34.648 C 91.786 33.628 93.249 32.997 94.863 32.997 L 94.863 32.997 L 94.863 32.997 Z " transform="matrix(0.6302494406700134, 0, 0, 0.6302494406700134, -12.95, -14.4)"/>
    <path id="ID0.3788029346615076" fill="#FFAC00" d="M 100.514 54.680 C 103.521 54.680 106.246 55.790 108.219 57.582 C 110.193 59.375 111.414 61.851 111.414 64.583 C 111.414 67.315 110.193 69.791 108.219 71.584 C 106.246 73.376 103.521 74.486 100.514 74.486 C 97.507 74.486 94.782 73.376 92.809 71.584 C 90.835 69.791 89.614 67.315 89.614 64.583 C 89.614 61.851 90.835 59.375 92.809 57.582 C 94.782 55.790 97.507 54.680 100.514 54.680 L 100.514 54.680 L 100.514 54.680 Z " transform="matrix(0.6302494406700134, 0, 0, 0.6302494406700134, -12.95, -14.4)"/>
    <path id="ID0.2442327979952097" fill="#FF0000" d="M 113.514 74.887 C 115.914 74.887 118.089 75.826 119.663 77.342 C 121.238 78.859 122.213 80.953 122.213 83.264 C 122.213 85.575 121.238 87.669 119.663 89.186 C 118.089 90.702 115.914 91.641 113.514 91.641 C 111.114 91.641 108.939 90.702 107.365 89.186 C 105.790 87.669 104.815 85.575 104.815 83.264 C 104.815 80.953 105.790 78.859 107.365 77.342 C 108.939 75.826 111.114 74.887 113.514 74.887 L 113.514 74.887 L 113.514 74.887 Z " transform="matrix(0.6302494406700134, 0, 0, 0.6302494406700134, -12.95, -14.4)"/>
    <path id="ID0.9025586959905922" fill="#FFAC00" d="M 92.759 91.411 C 83.501 91.506 76.065 98.406 76.151 106.820 C 76.203 111.730 78.805 116.064 82.802 118.806 C 82.962 118.916 83.124 119.023 83.288 119.128 C 84.417 120.404 86.223 120.502 87.484 121.189 C 87.626 121.205 87.756 121.230 87.880 121.269 C 88.047 121.215 88.230 121.181 88.427 121.172 C 88.668 121.034 88.958 120.951 89.290 120.933 C 90.386 120.551 91.435 120.148 92.565 119.937 C 92.755 119.794 92.971 119.691 93.217 119.654 C 93.244 119.650 93.272 119.644 93.298 119.638 C 93.582 119.415 93.951 119.277 94.402 119.258 C 94.707 119.043 95.075 118.910 95.470 118.857 C 95.554 118.795 95.638 118.734 95.739 118.689 C 96.071 118.542 96.405 118.400 96.740 118.259 C 96.957 118.167 96.974 118.159 96.792 118.238 C 96.910 118.187 97.027 118.136 97.146 118.086 C 97.614 117.874 98.064 117.645 98.490 117.357 C 98.739 117.189 99.019 117.105 99.304 117.085 C 99.439 116.979 99.575 116.876 99.746 116.811 C 99.880 116.742 100.030 116.692 100.188 116.655 C 100.417 116.414 100.711 116.231 101.083 116.145 C 101.274 115.998 101.487 115.873 101.753 115.811 C 101.899 115.703 102.050 115.600 102.235 115.537 C 102.424 115.350 102.657 115.199 102.940 115.108 C 103.033 115.041 103.135 114.981 103.244 114.930 C 103.369 114.791 103.518 114.673 103.688 114.577 C 103.903 114.316 104.207 114.133 104.570 114.025 C 104.729 113.867 104.922 113.736 105.147 113.646 C 105.184 113.625 105.213 113.599 105.252 113.584 C 105.413 113.432 105.582 113.305 105.754 113.186 C 105.897 113.007 106.074 112.858 106.285 112.743 C 106.303 112.725 106.314 112.707 106.334 112.690 C 106.502 112.477 106.713 112.297 106.977 112.177 C 107.182 111.932 107.432 111.721 107.772 111.612 C 107.919 111.401 108.112 111.223 108.346 111.090 C 108.442 110.986 108.548 110.892 108.671 110.812 C 108.807 110.560 108.981 110.330 109.225 110.163 C 109.307 109.784 109.385 109.359 109.487 108.873 C 109.514 108.717 109.538 108.561 109.557 108.402 C 109.643 107.773 109.684 107.132 109.678 106.480 C 109.596 98.062 102.020 91.314 92.759 91.411 L 92.759 91.411 L 92.759 91.411 L 92.759 91.411 Z " transform="matrix(0.6302494406700134, 0, 0, 0.6302494406700134, -12.95, -14.4)"/>
  </g>
</svg>
